packages/assets/static/images/icons/doc-generic.svg

<svg width="24" height="24" viewBox="0 0 24 24" xmlns="http://www.w3.org/2000/svg" fill="currentColor" aria-hidden="true"> <path d="M20.7959 7.455L15.5459 2.205C15.4415 2.10039 15.3174 2.0174 15.1808 1.96078C15.0442 1.90416 14.8978 1.87501 14.75 1.875H5.75C5.25272 1.875 4.77581 2.07254 4.42417 2.42417C4.07254 2.77581 3.875 3.25272 3.875 3.75V20.25C3.875 20.7473 4.07254 21.2242 4.42417 21.5758C4.77581 21.9275 5.25272 22.125 5.75 22.125H19.25C19.7473 22.125 20.2242 21.9275 20.5758 21.5758C20.9275 21.2242 21.125 20.7473 21.125 20.25V8.25C21.125 7.95187 21.0066 7.66593 20.7959 7.455ZM15.5 5.34375L17.6562 7.5H15.5V5.34375ZM6.125 19.875V4.125H13.25V8.625C13.25 8.92337 13.3685 9.20952 13.5795 9.4205C13.7905 9.63147 14.0766 9.75 14.375 9.75H18.875V19.875H6.125ZM15.5459 14.2041C15.6508 14.3086 15.734 14.4328 15.7908 14.5695C15.8476 14.7063 15.8768 14.8529 15.8768 15.0009C15.8768 15.149 15.8476 15.2956 15.7908 15.4324C15.734 15.5691 15.6508 15.6933 15.5459 15.7978L13.2959 18.0478C13.1914 18.1527 13.0672 18.2359 12.9305 18.2927C12.7937 18.3495 12.6471 18.3787 12.4991 18.3787C12.351 18.3787 12.2044 18.3495 12.0676 18.2927C11.9309 18.2359 11.8067 18.1527 11.7022 18.0478L9.45219 15.7978C9.24084 15.5865 9.12211 15.2998 9.12211 15.0009C9.12211 14.7021 9.24084 14.4154 9.45219 14.2041C9.66353 13.9927 9.95018 13.874 10.2491 13.874C10.5479 13.874 10.8346 13.9927 11.0459 14.2041L11.375 14.5312V11.625C11.375 11.3266 11.4935 11.0405 11.7045 10.8295C11.9155 10.6185 12.2016 10.5 12.5 10.5C12.7984 10.5 13.0845 10.6185 13.2955 10.8295C13.5065 11.0405 13.625 11.3266 13.625 11.625V14.5312L13.9541 14.2013C14.0587 14.0968 14.183 14.0141 14.3196 13.9577C14.4563 13.9013 14.6027 13.8724 14.7506 13.8727C14.8984 13.873 15.0448 13.9024 15.1812 13.9592C15.3177 14.0161 15.4416 14.0993 15.5459 14.2041Z"/> </svg>

<svg viewBox="0 0 24 24" xmlns="http://www.w3.org/2000/svg" aria-hidden="true" fill="currentColor"><path d="m20.796 7.455-5.25-5.25a1.12 1.12 0 0 0-.796-.33h-9A1.875 1.875 0 0 0 3.875 3.75v16.5a1.875 1.875 0 0 0 1.875 1.875h13.5a1.875 1.875 0 0 0 1.875-1.875v-12c0-.298-.118-.584-.33-.795M15.5 5.344 17.656 7.5H15.5zM6.125 19.875V4.125h7.125v4.5a1.125 1.125 0 0 0 1.125 1.125h4.5v10.125zm9.42-5.67a1.125 1.125 0 0 1 0 1.593l-2.25 2.25a1.125 1.125 0 0 1-1.593 0l-2.25-2.25a1.127 1.127 0 1 1 1.594-1.594l.329.327v-2.906a1.125 1.125 0 1 1 2.25 0v2.906l.33-.33a1.124 1.124 0 0 1 1.59.003"/></svg>
